X:1
T:Cent baisers au departir
T:Etienne du Tertre
T:Source : Livre VII de chansons nouvelles à 4---Paris---N.du Chemin---1550. Editor : André Vierendeels (29/01/18). Notes : Original clefs : C1, C3, C3, F3 Original note values have been halved Editorial accidentals above the stave
T:Cent baisers au departir
T:©
T:©
C:Etienne du Tertre
Z:©
%%score [ 1 2 3 4 ]
L:1/8
Q:1/4=120
M:2/2
K:F
V:1 treble nm="Soprano" snm="S"
V:2 treble nm="Alto" snm="A"
V:3 treble-8 nm="Tenor" snm="T"
V:4 bass nm="Bass" snm="B"
V:1
 B2 A2 A2 c2 | B2 G2 F4 | G2 G2 F2 G2 | A4 A4 | B2 B2 A2 A2 | G2 G2 F4 | G2 A2 B2 G2- | %7
w: Cent bai- sers au|de- par- tir,|bou- chet- te fri-|an- de,|cent bai- sers au|de- par- tir,|ie les vous de-|
"^#" G2 F2 G4 | B2 d2 c3 A | B2 c2 d4- | d4 z4 |"^#" z4 A2 A2 | G2 A2 A2 G2 | A4 A2 B2 | %14
w: * man- de,|pre- mier que d'i-|cy par- tir,|_|cent bai-|sers au de- par-|tir, fai- ctes|
 c2 c2 B2 B2 | A4 c2 B2 | A2 A2 G4 |[M:2/4] F4 |: B2 B2 |[M:2/2] A2 A2 G2 G2 | F4 G2 A2 | %21
w: lez à centz sor-|tir, a- mour|le com- man-|de,|cent bai-|sers au de- par-|tir, bou- chet-|
 B2 G4 F2 | G8 :| %23
w: te fri- an-|de.|
V:2
 G2 F2 F2 C2 | G2 E2 D4 | D2 D2 D2 E2 | F4 C4 | F2 F2 F2 F2 | D2 E2 D4 | E2 F2 D2 E2 | D4 D4 | %8
w: Cent bai- sers au|de- par- tir,|bou- chet- te fri-|an- de,|cent bai- sers au|de- par- tir,|ie les vous de-|man- de,|
 G2 G2 E2 A2 | G2 E2 F4 | D2 B,2 C2 D2 | D2 C2 D4 | z8 | z2 F4 G2 | A2 A2 F2 F2 | F4 F2 F2 | %16
w: pre- mier que d'i-|cy par- tir,|cent bai- sers au|de- par- tir,||fai- ctes|les à centz sor-|tir, a- mour|
 F2 F2 D4 |[M:2/4] D4 |: F2 F2 |[M:2/2] F2 F2 D2 E2 | D4 E2 F2 | D2 E2 D4 | D8 :| %23
w: le com- man-|de,|cent bai-|sers au de- par-|tir, bou- chet-|te fri- an-|de.|
V:3
 d2 d2 c2 A2 | B2 c2 A4 | B2 B2 A2 B2 | c4 A4 | d2 d2 c2 A2 | B2 c2 A4 | c2 c2 B2 c2 | A4 G4 | %8
w: Cent bai- sers au|de- par- tir,|bou- chet- te fri-|an- de,|cent bai- sers au|de- par- tir,|ie les vous de-|man- de,|
 d2 d2 g2 f2 | e2 e2 d4- | d4 z4 | z4 A2 d2 | c2 A2 B2 B2 | A4 d2 d2 | f3 e d2 d2 | c4 A2 B2 | %16
w: pre- mier que d'i-|cy par- tir,|_|cent bai-|sers au de- par-|tir, fai- ctes|les à centz sor-|tir, a- mour|
 c2 A2 B4 |[M:2/4] A4 |: d2 d2 |[M:2/2] c2 A2 B2 c2 | A4 c2 c2 | B2 c2 A4 | G8 :| %23
w: le com- man-|de,|cent bai-|sers au de- par-|tir, bou- chet-|te fri- an-|de.|
V:4
 G,2 D,2 F,2 F,2 | G,2 C,2 D,4 | G,2 G,2 D,2 G,2 | F,4 F,4 | B,,2 B,,2 F,2 F,2 | G,2 C,2 D,4 | %6
w: Cent bai- sers au|de- par- tir,|bou- chet- te fri-|an- de,|cent bai- sers au|de- par- tir,|
 C,2 F,2 G,2 C,2 | D,4 G,4 | G,2 G,2 D,2 F,2 | G,2 A,2 D,4 | D,2 G,2 F,2 D,2 | E,2 E,2 D,4 | z8 | %13
w: ie les vous de-|man- de,|pre- mier que d'i-|sy par- tir,|cent bai- sers au|de- patir, *||
 z2 D,4 G,2 | F,2 F,2 B,,2 B,,2 | F,4 F,2 B,,2 | F,2 F,2 G,4 |[M:2/4]"^#" D,4 |: B,,2 B,,2 | %19
w: fai- ctes|les à centz sor-|tir, a- mour|le com- man-|de,|cent bau-|
[M:2/2] F,2 F,2 G,2 C,2 | D,4 C,2 F,2 | G,2 C,2 D,4 | G,8 :| %23
w: sers au de- par-|tit, bou- chet-|te fri- an-|de.|

